icons/outline/binary-tree.svg

<!--
tags: [data, diversity, it, math]
unicode: "f5d4"
version: "1.112"
category: Computers
-->
<svg
  xmlns="http://www.w3.org/2000/svg"
  width="24"
  height="24"
  viewBox="0 0 24 24"
  fill="none"
  stroke="currentColor"
  stroke-width="2"
  stroke-linecap="round"
  stroke-linejoin="round"
>
  <path d="M6 20a2 2 0 1 0 -4 0a2 2 0 0 0 4 0zm10 -16a2 2 0 1 0 -4 0a2 2 0 0 0 4 0zm0 16a2 2 0 1 0 -4 0a2 2 0 0 0 4 0zm-5 -8a2 2 0 1 0 -4 0a2 2 0 0 0 4 0zm10 0a2 2 0 1 0 -4 0a2 2 0 0 0 4 0zm-15.942 6.306l2.88 -4.606m2.123 -3.397l2.877 -4.604m-2.873 8.006l2.876 4.6m2.122 -12.605l2.881 4.61" />
</svg>

<!--
tags: [data, diversity, it, math]
unicode: "f5d4"
version: "1.112"
category: Computers
-->
<svg
  xmlns="http://www.w3.org/2000/svg"
  width="24"
  height="24"
  viewBox="0 0 24 24"
  fill="none"
  stroke="currentColor"
  stroke-width="2"
  stroke-linecap="round"
  stroke-linejoin="round"
>
    <path d="M6 20a2 2 0 1 0 -4 0a2 2 0 0 0 4 0zM16 4a2 2 0 1 0 -4 0a2 2 0 0 0 4 0zM16 20a2 2 0 1 0 -4 0a2 2 0 0 0 4 0zM11 12a2 2 0 1 0 -4 0a2 2 0 0 0 4 0zM21 12a2 2 0 1 0 -4 0a2 2 0 0 0 4 0zM5.058 18.306l2.88 -4.606M10.061 10.303l2.877 -4.604M10.065 13.705l2.876 4.6M15.063 5.7l2.881 4.61" />
</svg>
